X:1
T:Beato mi direi - de Rore
T:James Gibb editions
T:#
%%score [ 1 2 3 4 ]
L:1/8
Q:1/4=140
M:4/4
K:Bb
V:1 treble nm="Soprano"
V:2 treble nm="Alto"
V:3 treble-8 nm="Tenor"
V:4 bass nm="Bass"
V:1
"^Beato mi direi""^Cipriano de Rore\n(1515-65)" G4 B4- | B4 A4 | G6 G2 | ^F4 F2 G2- | G2 e4 d2 | %5
w: Be- a\-|* to|mi di-|re- i, Be\-|* a- to|
 c6 c2 |[M:4/4] B4 B4 | z2 d2 c2 A2 | B2 G2 B4- | B2 B2 B2 B2 | (A2 GF G4) | G4 z4 | d4 c2 A2 | %13
w: mi di-|re- i,|se mi mo-|stras- se vo\-|* str'al- ma mer-|ce\- * * *|de|Quel di che|
 B4 G4 | B2 B2 B2 B2 | (A2 GF G4- | G4 G4 | z8 | z4 z2 ^F2- | F2 G4 A2 | G4 G4 | ^F4 F2 G2 | %22
w: fan vo-|stre pa- ro- le|fe\- * * *|* de.||Ma\-|* son ho-|mai si|stan- co De|
 G2 G2 d2 B2 | c2 d2 e2 d2 | cB B4 A2) | B4 z2 A2- | A2 B2 A2 B2 | G4 A4 | A2 z2 ^F4- | %29
w: l'a- spet- tar cio|che'l mio cor de-|si\- * * *|a, Ch'io|* po- trei ve-|nir man-|co, Ch'io|
 F2 G2 A2 G2 | G4 F4 | F2 G2 G2 G2 | d6 B2 | c2 d2 e2 d2 | (cB B4 A2) | B4 z4 | A8 | =B4 c4 | %38
w: * po- trei ve-|nir man-|co, In van bra-|man- do|vo- stra cor- te-|si\- * * *|a.|Dun-|que spe-|
 e6 d2 | c4 =B4 | z8 | z8 | z4 z2 d2 | d2 f2 e2 d2 | (c2 G2) F2 E2 | (D3 C D4) | C4 G4- | G4 A4 | %48
w: ran- za|mi- a,|||pri-|ma ch'io giun- g'al|fin * gli~an- ni|re\- * *|i, Con\-|* so-|
 B8 | c4 z4 | z4 e4 | d4 c2 B2- | B2 A4 (G2- | G2 ^F=E) F4 || z4 G4- | G4 A4 | B8 | c4 z4 | z4 e4 | %59
w: la-|te|gli~af-|flit- ti spir\-|* ti me\-|* * * i.|Con\-|* so-|la-|te|gli~af-|
[Q:1/4=138] d4[Q:1/4=135] c2[Q:1/4=133] B2- |[Q:1/4=132] B2[Q:1/4=129] A4[Q:1/4=127] (G2- | %61
w: flit- ti spir\-|* ti me\-|
[Q:1/4=125] G2[Q:1/4=124] ^F[Q:1/4=123]=E[Q:1/4=121] F4) |[Q:1/4=120] G16 |] %63
w: |i.|
V:2
 C4 F4- | F4 F4 | D4 E4 | D4 D2 D2 | B6 B2 | G4 _A4 |[M:4/4] G4 G2 G2 | F2 D2 E2 C2 | (E6 DC | %9
w: Be- a\-|* to|mi di-|re- i, Be-|a- to|mi di-|re- i, se|mi mo- stras- se|vo\- * *|
 B,6) G,2 | A,2 B,2 G,4- | G,4 D4 | z2 G4 F2 | D2 (E4 DC | B,6) G,2 | A,2 B,2 B,2 B,2 | (C4 G,4) | %17
w: * str'al-|ma mer- ce\-|* de|Quel di|che fan * *|* vo-|stre pa- ro- le|fe\- *|
 D4 z4 | z4 z2 A,2- | A,2 B,4 A,2 | B,4 G,4 | A,4 A,2 C2 | C2 B,2 F2 D2 | E2 D2 G2 F2 | (G4 F4) | %25
w: de.|Ma\-|* son ho-|mai si|stan- co De|l'a- spet- tar cio|che'l mio cor de-|si\- *|
 F4 z2 =E2- | E2 F2 =E2 F2 | D4 =E4 | =E2 z2 A,4- | A,2 B,2 A,2 B,2 | G,4 A,4 | A,2 C2 C2 B,2 | %32
w: a, Ch'io|* po- trei ve-|nir man-|co, Ch'io|* po- trei ve-|nir man-|co, In van bra-|
 F4 D2 E2- | E2 D2 G2 F2 | (G4 F4) | D4 z4 | ^F8 | G4 G4 | G6 !courtesy!=F2 | (E4 D4) | G4 z4 | %41
w: man- do vo\-|* stra cor- te-|si\- *|a.|Dun-|que spe-|ran- za|mi\- *|a,|
 z4 z2 G2 | G2 B2 A2 G2 | (F2 D2) G3 F | E4 (D2 C2- | C2 =B,A, B,4) | C4 =E4- | E4 F4 | G8 | %49
w: pri-|ma ch'io giun- g'al|fin * gli an-|ni re\- *||i, Con\-|* so-|la-|
 C4 z4 | z2 _A4 G2- | G2 F2 E4 | D4 (D3 C | D4) D4 || z4 =E4- | E4 F4 | G8 | C4 z4 | z2 _A4 G2- | %59
w: te|gli~af- flit\-|* ti spir-|ti me\- *|* i.|Con\-|* so-|la-|te|gli~af- flit\-|
 G2 F2 E4 | D4 (D3 C | D8) | D16 |] %63
w: * ti spir-|ti me\- *||i.|
V:3
 G4 d4- | d4 c4 | =B4 c4 | A4 A2 G2 | g6 f2 | =e4 f4 |[M:4/4][K:treble-8] d4 d4 | z8 | z4 g4- | %9
w: Be- a\-|* to|mi di-|re- i, Be-|a- to|mi di-|re- i,||se|
 g2 f2 d2 e2 | c2 B4 c2 | d2 e2 (f4- | f2 B2) c4 | z4 z2 g2- | g2 f2 d2 e2 | c2 d2 B2 e2- | %16
w: * mi mo- stras-|se vo- str'al-|ma mer- ce\-|* * de|Quel|* di che fan|vo- stre pa- ro\-|
 e2 e2 (d3 e | fd g4 ^f2) | g4 z4 | d4 e2 d2 | e4 c4 | d4 d2 e2 | e2 e2 d2 f2 | g2 f2 e2 B2 | %24
w: * le fe\- *||de.|Ma- son ho-|mai si|stan- co De|l'a- spet- tar cio|che'l mio cor de-|
 (e3 d c4) | d4 z2 A2- | A2 d2 c2 B2 | B4 A4 | A2 z2 d4- | d2 e2 d2 e2 | c4 d4 | d2 e2 e2 e2 | %32
w: si\- * *|a, Ch'io|* po- trei ve-|nir man-|co, Ch'io|* po- trei ve-|nir man-|co, In van bra-|
 d4 f2 g2- | g2 f2 e2 B2 | (e3 d c4) | B4 z4 | z4 d4- | d4 c4 | c2 B4 B2 | G8 | d4 z2 d2 | %41
w: man- do vo\-|* stra cor- te-|si\- * *|a.|Dun\-|* que|spe- ran- za|mi-|a, pri-|
 d2 f2 e2 d2 | c2 d2 c2 B2 | A4 G4 | z8 | z8 | z4 c4- | c4 c4 | e4 e4 | z2 e4 d2- | d2 c4 B2- | %51
w: ma ch'io giun- g'al|fin de gli~an- ni|re- i,|||Con\-|* so-|la- te|gli~af- flit\-|* ti spir\-|
 B2 A2 (G4- | G2 ^F=E F2 G2) | A8 || z4 c4- | c4 c4 | e4 e4 | z2 e4 d2- | d2 c4 B2- | B2 A2 (G4- | %60
w: * ti me\-||i.|Con\-|* so-|la- te|gli~af- flit\-|* ti spir\-|* ti me\-|
 G2 ^F=E F2 G2 | A8) |"^i." G16 |] %63
w: |||
V:4
 C,4 B,,4- | B,,4 F,4 | G,4 C,4 | D,4 D,2 G,2 | E,6 B,2 | C4 F,4 |[M:4/4] G,4 G,4 | z8 | z8 | %9
w: Be- a\-|* to|mi di-|re- i, Be-|a- to|mi di-|re- i,|||
 z4 G,4 | F,2 D,2 E,2 C,2 | B,6 B,2 | B,2 B,2 A,4 | G,8 | z4 G,4 | F,2 D,2 E,4 | C,4 B,2 B,2 | %17
w: se|mi mo- stras- se|vo- str'al-|ma mer- ce-|de|Quel|di che fan|vo- stre pa-|
 B,2 B,2 A,4 | G,4 z2 D,2- | D,2 G,4 F,2 | E,4 E,4 | D,4 D,2 C,2 | C,2 E,2 B,,4 | z2 B,,2 C,2 D,2 | %24
w: ro- le fe-|de. Ma\-|* son ho-|mai si|stan- co De|l'a- spet- tar|cio che'l mio|
 E,2 E,2 F,4 | B,,4 z4 | z8 | z8 | z4 D,4- | D,2 G,2 F,2 E,2 | E,4 D,4 | D,2 C,2 C,2 E,2 | %32
w: cor de- si-|a,|||Ch'io|* po- trei ve-|nir man-|co, In van bra-|
 B,,4 B,,2 E,2- | E,2 B,,2 C,2 D,2 | (E,4 F,4) | B,,4 z4 | D,8 | G,4 C,4- | C,2 E,4 B,,2 | %39
w: man- do vo\-|* stra cor- te-|si\- *|a.|Dun-|que spe\-|* ran- za|
 C,4 G,,2 G,2 | G,2 B,2 A,2 G,2 | F,2 D,2 (G,3 F,) | E,2 D,2 (F,2 G,2) | D,4 z4 | z8 | z8 | %46
w: mi- a, Pri-|ma ch'io giun- g'al|fin de gli *|an- ni re\- *|i,|||
 z4 C,4- | C,4 F,4 | E,6 E,2 | _A,4 G,4 | F,4 (E,3 F, | G,2 D,2 (E,3 D,/C,/ | B,,C, D,4 E,2) | %53
w: Con\-|* so-|la- te|gli~af- flit-|ti spir\- *|* ti me\- * *||
 D,8 || z4 C,4- | C,4 F,4 | E,6 E,2 | _A,4 G,4 | F,4 E,3 F, | G,2) D,2 (E,3 D,/C,/ | %60
w: i.|Con\-|* so-|la- te|gli~af- flit-|ti spir\- *|* ti me\- * *|
 B,,C, D,4 E,2 | D,8) |"^i." G,,16 |] %63
w: |||

